X:88
T:Eddie Curran's Monaghan Twig
Z: id:dc-reel-388
M:C
L:1/8
K:A Mixolydian
ed|cABd cAGB|Add2 efed|cABd cAag|effe d2:|!
cd|eaag efed|cdef g2fg|eaa2 efge|afge d2cd|!
eaag efed|cdef g2fg|eaa2 eaa2|gage df|]!

